icons/sandbox-16.svg

<svg xmlns="http://www.w3.org/2000/svg" width="16" height="16" viewBox="0 0 16 16"><path d="M7.71973 8.96973C8.01262 8.67683 8.48738 8.67683 8.78027 8.96973C9.07317 9.26262 9.07317 9.73738 8.78027 10.0303L7.31055 11.5L8.78027 12.9697C9.07317 13.2626 9.07317 13.7374 8.78027 14.0303C8.48738 14.3232 8.01262 14.3232 7.71973 14.0303L5.71973 12.0303C5.42683 11.7374 5.42683 11.2626 5.71973 10.9697L7.71973 8.96973ZM11.2197 8.96973C11.5126 8.67683 11.9874 8.67683 12.2803 8.96973L14.2803 10.9697C14.5732 11.2626 14.5732 11.7374 14.2803 12.0303L12.2803 14.0303C11.9874 14.3232 11.5126 14.3232 11.2197 14.0303C10.9268 13.7374 10.9268 13.2626 11.2197 12.9697L12.6895 11.5L11.2197 10.0303C10.9268 9.73738 10.9268 9.26262 11.2197 8.96973ZM14.5 8V1.75C14.5 1.61193 14.3881 1.5 14.25 1.5H1.75C1.61193 1.5 1.5 1.61193 1.5 1.75V14.25C1.5 14.3881 1.61193 14.5 1.75 14.5H3.5C3.91421 14.5 4.25 14.8358 4.25 15.25C4.25 15.6642 3.91421 16 3.5 16H1.75C0.783502 16 0 15.2165 0 14.25V1.75C0 0.783501 0.783502 0 1.75 0H14.25C15.2165 0 16 0.783502 16 1.75V8C16 8.41421 15.6642 8.75 15.25 8.75C14.8358 8.75 14.5 8.41421 14.5 8Z"/></svg>

<svg xmlns="http://www.w3.org/2000/svg" width="16" height="16" viewBox="0 0 16 16"><path d="M7.72 8.97a.749.749 0 1 1 1.06 1.06L7.311 11.5l1.469 1.47a.749.749 0 1 1-1.06 1.06l-2-2a.75.75 0 0 1 0-1.06zm3.5 0a.75.75 0 0 1 1.06 0l2 2a.75.75 0 0 1 0 1.06l-2 2a.749.749 0 1 1-1.06-1.06l1.47-1.47-1.47-1.47a.75.75 0 0 1 0-1.06M14.5 8V1.75a.25.25 0 0 0-.25-.25H1.75a.25.25 0 0 0-.25.25v12.5c0 .138.112.25.25.25H3.5a.75.75 0 0 1 0 1.5H1.75A1.75 1.75 0 0 1 0 14.25V1.75C0 .784.784 0 1.75 0h12.5C15.216 0 16 .784 16 1.75V8a.75.75 0 0 1-1.5 0"/></svg>
